X:414
T:Alborada del Dos de Mayo (MQ 006)
T:Marcha del Tao (MQ 006)
T:Marcha del Dos de Mayo (MQ 006)
T:Pasucáis Los Cabezudos (MQ 006)
R:Alborada
C:Tradicional
S:Música Tradicional Asturiana, (C) Tello & Tito. Asturies, 2001.
S:http://pagina.de/MusTradAst <telloytito@asturies.org>
N:Esta alborada es una de las más populares, recibe distintos nombres dependiendo de las zonas.
N:Esta es la versión que se tocaba en la zona de Quirós.
O:Quirós
A:Asturies
Z:Manolo Quirós 006
M:6/8
L:1/8
Q:1/4=78
K:C
|: EDC EDC|A2A ABG|GFE EDE|FED C3|
EDC EDC|A2A ABG|GFE EDE|[1 F6 :|:[2 F3-F2A|
| GAB c2B|A3 D2G|GAG GFE|FED C2A|
GAB c2B|A3 D2G|GAG GEG :|F3-F2 A|
|: AFA AFA|A2F D2G|GEG GEG|G2E C2A|
AFA AFA|A2F D2D|DEF GAG|GFE F3|[1 F3-F2A :|[2 F2G GAB|
|: c2c cdc|B2 B BcB|A2 A ABG|GFE DCD|
B2 B BcB|A2 A ABA|GAG FED|E>DC CEG|
c2 c cdc|B2 B BcB|A2 A ABG|GFE DCD|
B2 B BcB|A2 A ABA|GAG FED|[1 C3 CEG :|[2 C6||


